X:181
T:Kitty's Gone A-Milking
T:Kitty Gone A-Milking
R:reel
D:Mary Bergin: Feadoga Stain
Z:id:hn-reel-181
M:C|
K:G
dG~G2 d2cA | dG~G2 FGAB | dG~G2 d2eg | fdcA GABc :|
dg~g2 ag~g2 | dg~g2 d2cA |1 dg~g2 ag~g2 | dcAB c2Bc :|2 defg abag | fdcA GABc ||
P:variations
|: dG~G2 dAcA | dG~G2 FGAB | dG~G2 d2eg | fdcA G2Bc :|
dg~g2 ag~g2 | dggf d2cA |1 dg~g2 ag~g2 | dcAB c2Bc :|2 defg a2ag | fdcA G2Bc ||

